svg/arrow_right_bold_circle_outline.svg

<svg xmlns="http://www.w3.org/2000/svg" viewBox="0 0 24 24"><path d="m17 12-5 5v-3H8v-4h4V7zM2 12A10 10 0 0 1 12 2a10 10 0 0 1 10 10 10 10 0 0 1-10 10A10 10 0 0 1 2 12m2 0a8 8 0 0 0 8 8 8 8 0 0 0 8-8 8 8 0 0 0-8-8 8 8 0 0 0-8 8"/></svg>

<?xml version="1.0" encoding="UTF-8"?><!DOCTYPE svg PUBLIC "-//W3C//DTD SVG 1.1//EN" "http://www.w3.org/Graphics/SVG/1.1/DTD/svg11.dtd"><svg xmlns="http://www.w3.org/2000/svg" xmlns:xlink="http://www.w3.org/1999/xlink" version="1.1" id="mdi-arrow-right-bold-circle-outline" width="24" height="24" viewBox="0 0 24 24"><path d="M17,12L12,17V14H8V10H12V7L17,12M2,12A10,10 0 0,1 12,2A10,10 0 0,1 22,12A10,10 0 0,1 12,22A10,10 0 0,1 2,12M4,12A8,8 0 0,0 12,20A8,8 0 0,0 20,12A8,8 0 0,0 12,4A8,8 0 0,0 4,12Z" /></svg>
